docs/images/icons/dribbble.svg

<svg width="20.000000" height="20.000000" viewBox="0 0 20 20" fill="none" xmlns="http://www.w3.org/2000/svg" xmlns:xlink="http://www.w3.org/1999/xlink">
	<desc>
			Created with Pixso.
	</desc>
	<defs/>
	<path id="Vector" d="M16.6575 9.64307C16.5892 8.33154 16.133 7.06934 15.3467 6.01758C15.1071 6.27539 14.851 6.51758 14.58 6.74219C13.7475 7.43408 12.8171 7.99854 11.8192 8.41748C11.9584 8.70898 12.0859 8.9917 12.1983 9.2583L12.1983 9.26074C12.2301 9.33496 12.2607 9.41016 12.29 9.48584C13.5517 9.34424 14.8817 9.39551 16.1709 9.56982C16.3425 9.59326 16.5042 9.61816 16.6575 9.64307ZM8.83669 3.43506C9.6488 4.5791 10.3977 5.76709 11.08 6.99316C12.0992 6.59131 12.9417 6.08496 13.62 5.52051C13.8555 5.32666 14.0771 5.11621 14.2834 4.8916C13.0842 3.88281 11.5669 3.33105 10 3.33301C9.61005 3.33301 9.22079 3.3667 8.83669 3.43408L8.83669 3.43506ZM3.54419 8.33057C4.11188 8.31641 4.67889 8.28223 5.24419 8.22803C6.61055 8.10596 7.96525 7.87695 9.29585 7.54297C8.60045 6.33496 7.84965 5.15967 7.04585 4.02051C6.18729 4.4458 5.43024 5.05078 4.82606 5.79443C4.22188 6.53809 3.78471 7.40332 3.54419 8.33057ZM4.81918 14.1958C5.14252 13.7231 5.56752 13.1914 6.13168 12.6133C7.34335 11.3716 8.77335 10.4048 10.4284 9.87158L10.48 9.85645C10.3425 9.55322 10.2134 9.28223 10.0834 9.02734C8.55335 9.47314 6.94169 9.75146 5.33585 9.89551C4.55252 9.96631 3.85002 9.99756 3.33335 10.0024C3.33188 11.5293 3.85693 13.0103 4.82002 14.1958L4.81918 14.1958ZM12.5042 16.1792C12.1828 14.5586 11.7279 12.9673 11.1442 11.4214C9.47585 12.0273 8.14668 12.9131 7.11919 13.9697C6.70452 14.3887 6.33653 14.8511 6.02169 15.3491C7.17069 16.2065 8.56641 16.6685 10 16.6665C10.8583 16.668 11.7087 16.5029 12.5042 16.1807L12.5042 16.1792ZM14.065 15.2832C15.3661 14.2832 16.2524 12.8379 16.5542 11.2246C16.2709 11.1538 15.9117 11.083 15.5167 11.0283C14.6385 10.9019 13.7473 10.8926 12.8667 11.0005C13.3626 12.3999 13.7629 13.8306 14.065 15.2842L14.065 15.2832ZM10 18.333C5.39752 18.333 1.66669 14.6025 1.66669 10C1.66669 5.39746 5.39752 1.6665 10 1.6665C14.6025 1.6665 18.3334 5.39746 18.3334 10C18.3334 14.6025 14.6025 18.333 10 18.333Z" fill="#BDBDC0" fill-opacity="1.000000" fill-rule="nonzero"/>
</svg>

<svg width="20" height="20" fill="none" xmlns="http://www.w3.org/2000/svg"><path d="M16.657 9.643a6.631 6.631 0 0 0-1.31-3.625c-.24.257-.496.5-.767.724a10.952 10.952 0 0 1-2.76 1.675c.138.292.266.575.378.841v.003c.032.074.063.15.092.225 1.262-.142 2.592-.09 3.88.084.172.023.334.048.487.073Zm-7.82-6.208a38.435 38.435 0 0 1 2.243 3.558c1.02-.402 1.862-.908 2.54-1.472.236-.194.457-.405.663-.63A6.64 6.64 0 0 0 10 3.334c-.39 0-.78.034-1.163.101v.001ZM3.544 8.331a24.111 24.111 0 0 0 1.7-.103 26.23 26.23 0 0 0 4.052-.685 45.372 45.372 0 0 0-2.25-3.522 6.681 6.681 0 0 0-3.502 4.31Zm1.275 5.865c.324-.473.749-1.005 1.313-1.583 1.211-1.241 2.641-2.208 4.296-2.741l.052-.016a19.952 19.952 0 0 0-.397-.829c-1.53.446-3.141.724-4.747.869-.783.07-1.486.102-2.003.106a6.64 6.64 0 0 0 1.487 4.194Zm7.685 1.983a29.979 29.979 0 0 0-1.36-4.758c-1.668.606-2.997 1.492-4.025 2.549a8.16 8.16 0 0 0-1.097 1.38A6.636 6.636 0 0 0 10 16.665a6.64 6.64 0 0 0 2.504-.485v-.002Zm1.561-.896a6.664 6.664 0 0 0 2.49-4.058 10.166 10.166 0 0 0-1.038-.197 10.035 10.035 0 0 0-2.65-.027c.496 1.399.896 2.83 1.198 4.283ZM10 18.333a8.333 8.333 0 1 1 0-16.666 8.333 8.333 0 0 1 0 16.666Z" fill="#BDBDC0"/></svg>
